dist/img/svg/telegram.svg

<svg width="17" height="14" viewBox="0 0 17 14" fill="none" xmlns="http://www.w3.org/2000/svg">
<path fill-rule="evenodd" clip-rule="evenodd" d="M1.30622 6.31307C5.55259 4.42409 8.38417 3.17876 9.80096 2.57708C13.8462 0.859161 14.6867 0.56074 15.2346 0.550886C15.3551 0.548719 15.6245 0.57921 15.799 0.7238C15.9464 0.845889 15.9869 1.01081 16.0064 1.12657C16.0258 1.24232 16.0499 1.50601 16.0307 1.71205C15.8115 4.06375 14.863 9.77071 14.3804 12.4047C14.1762 13.5192 13.7742 13.8929 13.3849 13.9294C12.5391 14.0089 11.8967 13.3587 11.0774 12.8103C9.79541 11.9523 9.07115 11.4181 7.82673 10.5808C6.38858 9.61319 7.32087 9.08135 8.14046 8.21219C8.35496 7.98472 12.082 4.52343 12.1541 4.20944C12.1631 4.17017 12.1715 4.02379 12.0863 3.9465C12.0012 3.8692 11.8755 3.89563 11.7847 3.91665C11.6562 3.94645 9.60812 5.3286 5.6406 8.06309C5.05927 8.47067 4.53272 8.66926 4.06094 8.65885C3.54085 8.64738 2.54041 8.3586 1.79668 8.11176C0.88446 7.809 0.15945 7.64893 0.222582 7.13475C0.255465 6.86693 0.616679 6.59304 1.30622 6.31307Z" fill="currentColor"/>
</svg>

<svg width="17" height="14" viewBox="0 0 17 14" fill="none" xmlns="http://www.w3.org/2000/svg"><path fill-rule="evenodd" clip-rule="evenodd" d="M1.306 6.313C5.553 4.424 8.384 3.18 9.801 2.577 13.846.86 14.687.561 15.235.551c.12-.002.39.028.564.173a.632.632 0 01.207.403c.02.115.044.379.025.585-.22 2.352-1.168 8.059-1.65 10.693-.205 1.114-.607 1.488-.996 1.524-.846.08-1.488-.57-2.308-1.119-1.282-.858-2.006-1.392-3.25-2.23-1.438-.967-.506-1.499.313-2.368.215-.227 3.942-3.689 4.014-4.003.01-.039.018-.185-.068-.262-.085-.078-.21-.051-.301-.03-.129.03-2.177 1.412-6.144 4.146-.582.408-1.108.606-1.58.596-.52-.012-1.52-.3-2.264-.547C.884 7.809.159 7.649.223 7.135c.032-.268.394-.542 1.083-.822z" fill="currentColor"/></svg>
